X:1
T:Elizabeth Campbell's Welcome to the World  "CYMRU"
M:C
L:1/8
Q:80
C:18/8 March - M. Grey
S:
K:HP
e|
{g}A3/2{d}c/2{e}B{g}c3/2B/2{G}A{GAG}A2{d}c{gef}e3/2c/2a{fg}f3{gef}e2f|
a3/2f/2{g}e{gcd}c2e{gfg}f2e{g}f3/2e/2{g}A{g}B3{GdGe}B2e:|2 |
{g}A3/2{d}c/2{e}B{g}c3/2B/2{G}A{GAG}A2{d}c{gef}e3/2c/2a{fg}f3{gef}e2f|
!
a3/2f/2{e}f{g}e3/2f/2{g}A{gBG}B2e{g}c3/2{d}B/2{e}B{G}A3{GAG}A2:| |:
e|
{g}c2{GdG}e{gef}e3/2c/2{d}A{ag}a2f{gef}e3/2c/2a{fg}f3{gef}e3|
{g}c3/2e/2{g}A{g}f3/2e/2{g}c{ag}a2e{g}f3/2e/2{g}A{g}B3{GdGe}B2e|1 |  !
{g}c2{GdG}e{gef}e3/2c/2{d}A{ag}a2f{gef}e3/2c/2a{fg}f3{gef}e2f|
a3/2f/2{e}f{g}e3/2f/2{g}A{gBG}B2e{g}c3/2{d}B/2{e}B{G}A3{GAG}A2:|

